;FLAVOR:Marlin
;TIME:3708.97
;Filament used:6.21641m
;Layer height:0.2
;MINX:37.042
;MINY:78.207
;MINZ:0.2
;MAXX:181.053
;MAXY:141.794
;MAXZ:12.4
;OuterWall Time:478.866
;InnerWall Time:634.522
;Skin Time:1930.77
;Support Time:0
;SkirtBrim Time:14.9125
;Infill Time:299.556
;Support Infills Time:0
;Combing Time:188.213
;Retraction Time:162.13
;PrimeTower Time:0
;;;;;;;;;;;;;;;;;;;;;;;;;;;;;;;;;;;;;;;;;;;;;;;;;;;;;;;;;;;;;;;;;;;;;;;;
;Creality Print GCode Generated by CXEngine
;CRSLICE_GIT_HASH:d90fa71
;Creality Print Version : V4.3.8.6674
;CXEngine Release Time:2023-10-16 18:06:53
;Gcode Generated Time:2024-04-08 17:27:55
;----------Machine Config--------------
;Machine Name:Ender-3 V3 SE
;Machine Height:250
;Machine Width:220
;Machine Depth:220
;Material Type:PLA
;Material Name:CR-PLA_1.75
;Number of Extruders:1
;ExtruderParams[0] Nozzle Diameter:1000
;----------Profile Config---------------
;Wall Thickness:0.8
;Top/Bottom Thickness:0.8
;Out Wall Line Width:0.42
;Inner Wall Line Width:0.45
;Inital Height:200
;Wall Line Count:3
;Infill Line Distance:8
;Infill Pattern:grid
;Infill Sparse Density:10
;Infill Wipe Distance:0.11
;Print Temperature:205
;Bed Temperature:60
;Support Enable:false
;Support Density:15
;Support Angle:60
;Adhesion Type:skirt
;machine is belt:false
;machine belt offset:10
;machine belt offset Y:0
;Raft Base Line Spacing:1.6
;Wait Heatup Sync:true
;Enable Ironing:false
;Material Type:PLA
;Max volumetric speed:20
;Material Diameter:1.75
;Material Density:1.24
;Filament Cost:20
;Filament Weight:1000
;Preview Img Type:png
;Screen Size:Sermoon D3
;----------Shell Config----------------
;Outer Wall Wipe Distance:200
;Outer Inset First:false
;Infill Before Walls:false
;Infill Overlap:0.05
;Fill Gaps Between Walls:everywhere
;Minimum Infill Area:15
;Top Surface Skin Layer:0
;Top Layers:4
;Z Seam Alignment:sharpest_corner
;Seam Corner Preference:z_seam_corner_inner
;Z Seam X:110
;Z Seam Y:220
;Horizontal Expansion:0
;Top/Bottom Pattern:lines
;Ironing Pattern:zigzag
;Vase Model:false
;----------Support Config----------------
;Support Type:everywhere
;Support Pattern:zigzag
;Support Infill Layer Thickness:0.15
;Minimum Support Area:1
;Enable Support Roof:true
;Support Roof Thickness:0.8
;Support Roof Pattern:lines
;Connect Support Lines:0
;Connect Support ZigZags:1
;Minimum Support X/Y Distance:0.2
;Support Line Distance:2.67
; ---------PrintSpeed & Travel----------
;Enable Print Cool:true
;Avoid Printed Parts Traveling:true
;Enable Retraction:true
;Retraction Distance:0.8
;Retraction Speed:25
;Retraction Prime Speed:25
;Maximum Retraction Count:100
;Minimum Extrusion Distance Window:0.8
;Z Hop When Retracted:false
;Z Hop Height:0.2
;Retract Before Outer Wall:true

;Outer Wall Speed:60
;Inner Wall Speed:90
;Infill Speed:180
;Top/Bottom Speed:50
;Travel Speed:150
;Initial Layer Speed:30
;Skirt/Brim Speed:25
;Prime Tower Speed:60
;Outer Wall Acceleration:1000
;Inner Wall Acceleration:2000
;Infill Acceleration:2500
;Top/Bottom Acceleration:2500
;Travel Acceleration:2500
;Initial Layer Print Acceleration:500
;Initial Layer Travel Acceleration:500
;Skirt/Brim Acceleration:500
;Combing Mode:no_outer_surfaces
; --------SpecialModel&Mesh Fixes--------
;Union Overlapping Volum:true
;Remove All Holes:false
;Maximum Travel Resolution:0.25
;Maximum Deviation:0.05
;Maximum Model Angle:0.872665
;IS Mold Print:false
;Make Overhang Printable:false
;Enable Coasting:false
;Coasting Volumes:0.064
;Coasting Speed:0.9
;Raft AirGap:0.25
;Layer0 ZOverLap:0.13
;Adaptive Layers:0
;---------------------End of Head--------------------------
M140 S60
M105
M190 S60
M104 S205
M82 ;absolute extrusion mode
M220 S100 ;Reset Feedrate
M221 S100 ;Reset Flowrate

G28 ;Home

G92 E0 ;Reset Extruder
G1 Z2.0 F3000 ;Move Z Axis up
G1 X-2.1 Y20 Z0.28 F5000.0 ;Move to start position
M109 S205.000000
G1 X-2.1 Y145.0 Z0.28 F1500.0 E15 ;Draw the first line
G1 X-2.4 Y145.0 Z0.28 F5000.0 ;Move to side a little
G1 X-2.4 Y20 Z0.28 F1500.0 E30 ;Draw the second line
G92 E0  ;Reset Extruder
G1 E-1.0000 F1800 ;Retract a bit
G1 Z2.0 F3000 ;Move Z Axis up
G1 E0.0000 F1800 

G92 E0
G92 E0
G1 F1500 E-0.8
;LAYER_COUNT:62

;LAYER:0
M106 S0
M204 S500
G0 F4800 X42.466 Y79.211 Z0.2
;TYPE:SKIRT
G1 F1500 E0
G1 X42.107 Y79.424 E0.01924
G1 X41.511 Y79.83 E0.05249
G1 X41.298 Y79.988 E0.06471
G1 X41.057 Y80.183 E0.079
G1 X40.44 Y80.717 E0.11662
G1 X38.51 Y82.443 E0.23598
G1 X38.084 Y82.839 E0.26279
G1 X37.699 Y83.267 E0.28933
G1 X37.427 Y83.696 E0.31274
G1 X37.225 Y84.162 E0.33616
G1 X37.099 Y84.654 E0.35957
G1 X37.052 Y85.16 E0.383
G1 X37.042 Y85.861 E0.41531
G1 X37.042 Y134.261 E2.64648
G1 X37.053 Y134.855 E2.67387
G1 X37.115 Y135.431 E2.70058
G1 X37.255 Y135.92 E2.72403
G1 X37.468 Y136.381 E2.74744
G1 X37.752 Y136.802 E2.77085
G1 X38.098 Y137.174 E2.79427
G1 X38.61 Y137.644 E2.82631
G1 X40.848 Y139.642 E2.96461
G1 X41.339 Y140.051 E2.99406
G1 X41.585 Y140.236 E3.00825
G1 X42.033 Y140.54 E3.03321
G1 X42.38 Y140.745 E3.05179
G1 X42.898 Y141.009 E3.07859
G1 X43.209 Y141.147 E3.09428
G1 X43.71 Y141.339 E3.11901
G1 X43.988 Y141.431 E3.13251
G1 X44.445 Y141.56 E3.1544
G1 X44.807 Y141.641 E3.1715
G1 X45.339 Y141.727 E3.19634
G1 X45.673 Y141.763 E3.21183
G1 X46.188 Y141.792 E3.23561
G1 X46.512 Y141.794 E3.25054
G1 X47.114 Y141.763 E3.27833
G1 X47.987 Y141.678 E3.31877
G1 X68.101 Y139.435 E4.25174
G1 X69.149 Y139.297 E4.30047
G1 X69.639 Y139.193 E4.32356
G1 X70.114 Y139.011 E4.34701
G1 X70.574 Y138.792 E4.37049
G1 X72.718 Y137.737 E4.48065
G1 X75.169 Y136.621 E4.6048
G1 X77.752 Y135.531 E4.73404
G1 X80.255 Y134.561 E4.85778
G1 X82.827 Y133.644 E4.98366
G1 X85.438 Y132.796 E5.11021
G1 X88.051 Y132.028 E5.23576
G1 X90.75 Y131.317 E5.36443
G1 X93.389 Y130.701 E5.48935
G1 X96.053 Y130.159 E5.61467
G1 X98.77 Y129.685 E5.74181
G1 X101.462 Y129.294 E5.86721
G1 X104.159 Y128.98 E5.99238
G1 X106.935 Y128.736 E6.12084
G1 X109.647 Y128.574 E6.24609
G1 X112.363 Y128.49 E6.37135
G1 X115.114 Y128.481 E6.49817
G1 X117.863 Y128.551 E6.62493
G1 X120.584 Y128.698 E6.75055
G1 X157.992 Y131.236 E8.47897
G1 X159.039 Y131.276 E8.52727
G1 X160.201 Y131.294 E8.58084
G1 X161.032 Y131.264 E8.61918
G1 X161.386 Y131.239 E8.63553
G1 X162.302 Y131.149 E8.67796
G1 X163.29 Y131.007 E8.72398
G1 X163.957 Y130.881 E8.75527
G1 X164.592 Y130.743 E8.78522
G1 X165.462 Y130.522 E8.8266
G1 X166.256 Y130.285 E8.8648
G1 X166.603 Y130.171 E8.88164
G1 X167.722 Y129.756 E8.93666
G1 X168.687 Y129.34 E8.9851
G1 X169.656 Y128.863 E9.03489
G1 X170.24 Y128.544 E9.06556
G1 X170.663 Y128.298 E9.08812
G1 X171.341 Y127.876 E9.12494
G1 X172.059 Y127.389 E9.16493
G1 X172.559 Y127.026 E9.19341
G1 X172.993 Y126.692 E9.21866
G1 X173.413 Y126.348 E9.24369
G1 X174.18 Y125.677 E9.29066
G1 X174.894 Y124.991 E9.33631
G1 X175.385 Y124.476 E9.36911
G1 X176.126 Y123.629 E9.42099
G1 X176.5 Y123.165 E9.44846
G1 X177.057 Y122.426 E9.49112
G1 X177.565 Y121.689 E9.53238
G1 X178.258 Y120.558 E9.59353
G1 X178.66 Y119.822 E9.63219
G1 X179.065 Y118.998 E9.67452
G1 X179.454 Y118.107 E9.71933
G1 X179.738 Y117.372 E9.75566
G1 X180.004 Y116.619 E9.79247
G1 X180.302 Y115.631 E9.84004
G1 X180.531 Y114.716 E9.88353
G1 X180.691 Y113.939 E9.9201
G1 X180.782 Y113.422 E9.94429
G1 X180.914 Y112.478 E9.98823
G1 X180.992 Y111.672 E10.02556
G1 X181.031 Y111.082 E10.05282
G1 X181.053 Y110.511 E10.07916
G1 X181.048 Y109.301 E10.13494
G1 X181.036 Y108.991 E10.14924
G1 X180.959 Y107.933 E10.19815
G1 X180.843 Y106.976 E10.24258
G1 X180.737 Y106.33 E10.27276
G1 X180.596 Y105.594 E10.30731
G1 X180.489 Y105.107 E10.33029
G1 X180.363 Y104.603 E10.35424
G1 X180.107 Y103.705 E10.39729
G1 X179.867 Y102.978 E10.43258
G1 X179.695 Y102.503 E10.45587
G1 X179.407 Y101.773 E10.49205
G1 X179.027 Y100.918 E10.53518
G1 X178.515 Y99.903 E10.58758
G1 X178.044 Y99.075 E10.6315
G1 X177.74 Y98.583 E10.65816
G1 X177.242 Y97.832 E10.6997
G1 X176.858 Y97.302 E10.72987
G1 X176.414 Y96.722 E10.76354
G1 X175.956 Y96.165 E10.79678
G1 X175.309 Y95.444 E10.84144
G1 X174.473 Y94.598 E10.89627
G1 X173.788 Y93.973 E10.93901
G1 X173.452 Y93.684 E10.95944
G1 X172.925 Y93.255 E10.99077
G1 X172.623 Y93.022 E11.00835
G1 X171.716 Y92.371 E11.05982
G1 X171.016 Y91.916 E11.09831
G1 X170.238 Y91.455 E11.14
G1 X169.266 Y90.939 E11.19073
G1 X168.179 Y90.434 E11.24598
G1 X167.81 Y90.279 E11.26443
G1 X167.067 Y89.991 E11.30116
G1 X166.246 Y89.711 E11.34115
G1 X165.874 Y89.596 E11.3591
G1 X164.871 Y89.319 E11.40707
G1 X164.244 Y89.175 E11.43672
G1 X163.682 Y89.064 E11.46313
G1 X162.797 Y88.917 E11.50449
G1 X161.86 Y88.803 E11.548
G1 X161.473 Y88.768 E11.56591
G1 X160.777 Y88.722 E11.59807
G1 X159.597 Y88.698 E11.65248
G1 X158.637 Y88.727 E11.69675
G1 X157.716 Y88.78 E11.73928
G1 X120.59 Y91.302 E13.45468
G1 X118.318 Y91.43 E13.55958
G1 X115.55 Y91.512 E13.68723
G1 X112.832 Y91.517 E13.81253
G1 X110.081 Y91.444 E13.93939
G1 X107.369 Y91.295 E14.0646
G1 X104.626 Y91.066 E14.19149
G1 X101.928 Y90.765 E14.31663
G1 X99.2 Y90.381 E14.44363
G1 X96.51 Y89.925 E14.5694
G1 X93.826 Y89.391 E14.69556
G1 X91.151 Y88.78 E14.82205
G1 X88.487 Y88.092 E14.94888
G1 X85.876 Y87.338 E15.07417
G1 X83.248 Y86.498 E15.20135
G1 X80.715 Y85.608 E15.32512
G1 X78.124 Y84.616 E15.45301
G1 X75.609 Y83.57 E15.57858
G1 X73.081 Y82.433 E15.70636
G1 X70.635 Y81.249 E15.83163
G1 X70.145 Y81.004 E15.85689
G1 X69.606 Y80.793 E15.88357
G1 X69.109 Y80.689 E15.90698
G1 X68.404 Y80.599 E15.93974
G1 X47.377 Y78.26 E16.91503
G1 X46.671 Y78.212 E16.94765
G1 X46.353 Y78.207 E16.96231
G1 X45.896 Y78.221 E16.98339
G1 X45.542 Y78.251 E16.99977
G1 X44.963 Y78.333 E17.02673
G1 X44.603 Y78.405 E17.04365
G1 X44.08 Y78.541 E17.06856
G1 X43.671 Y78.677 E17.08843
G1 X43.02 Y78.943 E17.12085
G1 X42.782 Y79.051 E17.1329
G1 X42.466 Y79.211 E17.14923
;;retract;;
G1 F1500 E16.58923
G1 F2400 X41.511 Y79.83 E16.45949
G1 X41.298 Y79.988 E16.42928
G1 X41.057 Y80.183 E16.39394
G1 X40.84 Y80.371 E16.36123
G1 F1500 E16.34923
;MESH:0_0
G0 F4800 X42.466 Y79.211
G0 X56.32 Y127.766
G0 X55.677 Y130.401
G0 X55.948 Y130.901
G1 F1500 E17.14923
G0 F4800 X56.48 Y130.529
;TYPE:WALL-OUTER
G1 F1800 X56.41 Y130.303 E17.16068
G1 X57.459 Y128.172 E17.27565
G1 X57.962 Y127.112 E17.33244
G1 X58.627 Y125.661 E17.4097
G1 X59.165 Y124.431 E17.47468
G1 X59.726 Y123.085 E17.54526
G1 X60.222 Y121.813 E17.61135
G1 X60.708 Y120.49 E17.67957
G1 X61.159 Y119.159 E17.74759
G1 X61.559 Y117.863 E17.81324
G1 X61.925 Y116.531 E17.8801
G1 X62.239 Y115.172 E17.94762
G1 X62.468 Y113.917 E18.00937
G1 X62.649 Y112.583 E18.07453
G1 X62.754 Y111.306 E18.13655
G1 X62.791 Y109.987 E18.20042
G1 X62.754 Y108.694 E18.26303
G1 X62.648 Y107.415 E18.32515
G1 X62.465 Y106.058 E18.39143
G1 X62.213 Y104.711 E18.45776
G1 X61.918 Y103.439 E18.52096
G1 X61.565 Y102.154 E18.58546
G1 X61.143 Y100.789 E18.65462
G1 X60.696 Y99.473 E18.72189
G1 X60.205 Y98.139 E18.7907
G1 X59.692 Y96.834 E18.85857
G1 X59.186 Y95.621 E18.92219
G1 X58.594 Y94.271 E18.99354
G1 X57.348 Y91.598 E19.13629
G1 X56.41 Y89.698 E19.23885
G1 X56.481 Y89.471 E19.25036
G1 X56.624 Y89.409 E19.25791
G1 X68.521 Y90.739 E19.83735
G1 X69.388 Y91.534 E19.89429
G1 X70.203 Y92.248 E19.94674
G1 X71.096 Y92.997 E20.00315
G1 X71.958 Y93.683 E20.05647
G1 X72.829 Y94.342 E20.10934
G1 X73.707 Y94.971 E20.16162
G1 X74.611 Y95.585 E20.21452
G1 X75.56 Y96.185 E20.26886
G1 X76.457 Y96.721 E20.31944
G1 X77.414 Y97.25 E20.37237
G1 X78.379 Y97.747 E20.42491
G1 X79.356 Y98.21 E20.47724
G1 X80.396 Y98.662 E20.53213
G1 X81.366 Y99.045 E20.58261
G1 X82.381 Y99.406 E20.63475
G1 X83.505 Y99.763 E20.69184
G1 X84.452 Y100.028 E20.73943
G1 X85.478 Y100.288 E20.79067
G1 X85.619 Y100.543 E20.80477
G1 X85.189 Y101.27 E20.84565
G1 X84.641 Y102.331 E20.90346
G1 X84.457 Y102.726 E20.92455
G1 X84.146 Y103.462 E20.96322
G1 X83.849 Y104.285 E21.00557
G1 X83.599 Y105.085 E21.04614
G1 X83.388 Y105.893 E21.08656
G1 X83.211 Y106.722 E21.12759
G1 X83.089 Y107.484 E21.16495
G1 X82.986 Y108.352 E21.20726
G1 X82.929 Y109.168 E21.24685
G1 X82.908 Y110.021 E21.28815
G1 X82.929 Y110.832 E21.32742
G1 X82.989 Y111.684 E21.36876
G1 X83.085 Y112.498 E21.40843
G1 X83.217 Y113.296 E21.44759
G1 X83.396 Y114.142 E21.48944
G1 X83.61 Y114.952 E21.52999
G1 X83.855 Y115.733 E21.56961
G1 X84.154 Y116.549 E21.61168
G1 X84.653 Y117.697 E21.67227
G1 X84.825 Y118.047 E21.69114
G1 X85.234 Y118.808 E21.73296
G1 X85.587 Y119.404 E21.76649
G1 X85.591 Y119.595 E21.77574
G1 X85.472 Y119.718 E21.78402
G1 X84.454 Y119.971 E21.8348
G1 X83.426 Y120.261 E21.8865
G1 X82.394 Y120.59 E21.93893
G1 X81.407 Y120.941 E21.98963
G1 X80.37 Y121.35 E22.04359
G1 X79.382 Y121.777 E22.09569
G1 X78.395 Y122.244 E22.14854
G1 X77.391 Y122.762 E22.20322
G1 X76.453 Y123.282 E22.25514
G1 X75.521 Y123.838 E22.30766
G1 X74.622 Y124.41 E22.35924
G1 X73.658 Y125.062 E22.41557
G1 X72.785 Y125.688 E22.46757
G1 X71.912 Y126.352 E22.52066
G1 X71.011 Y127.07 E22.57642
G1 X70.097 Y127.841 E22.6343
G1 X69.354 Y128.497 E22.68228
G1 X68.505 Y129.268 E22.73779
G1 X56.628 Y130.594 E23.31625
G1 X56.48 Y130.529 E23.32407
G0 F4800 X56.421 Y130.338
G0 X56.069 Y130.783
;TYPE:WALL-INNER
G1 F1800 X55.931 Y130.415 E23.34349
G1 X55.972 Y130.115 E23.35844
G1 X57.027 Y127.967 E23.47664
G1 X57.55 Y126.862 E23.53702
G1 X58.156 Y125.544 E23.60867
G1 X58.756 Y124.169 E23.68277
G1 X59.282 Y122.906 E23.75034
G1 X59.774 Y121.644 E23.81724
G1 X60.257 Y120.331 E23.88634
G1 X60.704 Y119.011 E23.95518
G1 X61.1 Y117.729 E24.02145
G1 X61.461 Y116.414 E24.0888
G1 X61.77 Y115.075 E24.15667
G1 X61.995 Y113.841 E24.21863
G1 X62.173 Y112.531 E24.28392
G1 X62.276 Y111.28 E24.34592
G1 X62.312 Y109.987 E24.40981
G1 X62.276 Y108.72 E24.47241
G1 X62.172 Y107.467 E24.53451
G1 X61.992 Y106.134 E24.60095
G1 X61.744 Y104.809 E24.66753
G1 X61.454 Y103.556 E24.73105
G1 X61.106 Y102.288 E24.796
G1 X60.688 Y100.937 E24.86585
G1 X60.245 Y99.633 E24.93387
G1 X59.758 Y98.309 E25.00354
G1 X59.248 Y97.014 E25.07229
G1 X58.746 Y95.809 E25.13676
G1 X58.158 Y94.468 E25.20908
G1 X56.916 Y91.805 E25.35421
G1 X55.978 Y89.9 E25.45909
G1 X55.929 Y89.659 E25.47124
G1 X56.007 Y89.315 E25.48866
G1 X56.154 Y89.121 E25.50068
G1 X56.5 Y88.911 E25.52067
G1 X68.585 Y90.261 E26.12128
G1 X68.878 Y90.418 E26.1377
G1 X69.704 Y91.175 E26.19304
G1 X70.51 Y91.881 E26.24596
G1 X71.394 Y92.623 E26.30296
G1 X72.229 Y93.288 E26.35569
G1 X73.133 Y93.971 E26.41165
G1 X74 Y94.591 E26.46429
G1 X74.917 Y95.213 E26.51902
G1 X75.784 Y95.762 E26.56971
G1 X76.696 Y96.306 E26.62216
G1 X77.639 Y96.828 E26.67539
G1 X78.591 Y97.318 E26.72827
G1 X79.554 Y97.774 E26.7809
G1 X80.55 Y98.207 E26.83454
G1 X81.534 Y98.597 E26.88682
G1 X82.533 Y98.952 E26.93919
G1 X83.673 Y99.313 E26.99825
G1 X84.574 Y99.565 E27.04446
G1 X85.654 Y99.833 E27.09942
G1 X85.934 Y100.049 E27.11688
G1 X86.065 Y100.317 E27.13162
G1 X86.051 Y100.75 E27.15302
G1 X85.608 Y101.502 E27.19612
G1 X85.07 Y102.542 E27.25396
G1 X84.895 Y102.92 E27.27453
G1 X84.592 Y103.637 E27.31298
G1 X84.303 Y104.438 E27.35503
G1 X84.059 Y105.217 E27.39535
G1 X83.854 Y106.004 E27.43552
G1 X83.682 Y106.809 E27.47618
G1 X83.563 Y107.55 E27.51325
G1 X83.463 Y108.397 E27.55537
G1 X83.407 Y109.191 E27.59469
G1 X83.387 Y110.021 E27.63569
G1 X83.407 Y110.809 E27.67463
G1 X83.466 Y111.639 E27.71572
G1 X83.559 Y112.43 E27.75506
G1 X83.688 Y113.208 E27.79401
G1 X83.862 Y114.031 E27.83556
G1 X84.07 Y114.819 E27.87581
G1 X84.308 Y115.579 E27.91515
G1 X84.598 Y116.371 E27.95681
G1 X85.087 Y117.496 E28.01739
G1 X85.25 Y117.829 E28.03571
G1 X85.651 Y118.573 E28.07745
G1 X86.018 Y119.198 E28.11325
G1 X86.11 Y119.651 E28.13608
G1 X85.867 Y120.019 E28.15786
G1 X85.663 Y120.165 E28.17025
G1 X84.549 Y120.442 E28.22695
G1 X83.533 Y120.729 E28.27909
G1 X82.547 Y121.043 E28.3302
G1 X81.547 Y121.401 E28.38266
G1 X80.525 Y121.804 E28.43693
G1 X79.58 Y122.212 E28.48776
G1 X78.607 Y122.673 E28.54094
G1 X77.623 Y123.181 E28.59564
G1 X76.692 Y123.697 E28.64821
G1 X75.772 Y124.245 E28.7011
G1 X74.878 Y124.814 E28.75344
G1 X73.937 Y125.451 E28.80957
G1 X73.047 Y126.09 E28.86368
G1 X72.19 Y126.743 E28.9169
G1 X71.319 Y127.436 E28.97187
G1 X70.429 Y128.186 E29.02936
G1 X69.676 Y128.851 E29.07898
G1 X68.823 Y129.629 E29.136
